src/assets/outline/Speaker.svg

<?xml version="1.0" encoding="UTF-8"?>
<svg width="24" height="24" viewBox="0 0 24 24" xmlns="http://www.w3.org/2000/svg">
 <path d="m15 22.75h-6c-3.42 0-4.75-1.33-4.75-4.75v-12c0-3.42 1.33-4.75 4.75-4.75h6c3.42 0 4.75 1.33 4.75 4.75v12c0 3.42-1.33 4.75-4.75 4.75zm-6-20c-2.58 0-3.25 0.67-3.25 3.25v12c0 2.58 0.67 3.25 3.25 3.25h6c2.58 0 3.25-0.67 3.25-3.25v-12c0-2.58-0.67-3.25-3.25-3.25h-6z"/>
 <path d="m12 18.75c-2.07 0-3.75-1.68-3.75-3.75s1.68-3.75 3.75-3.75 3.75 1.68 3.75 3.75-1.68 3.75-3.75 3.75zm0-6c-1.24 0-2.25 1.01-2.25 2.25s1.01 2.25 2.25 2.25 2.25-1.01 2.25-2.25-1.01-2.25-2.25-2.25z"/>
 <path d="m12 9.75c-1.24 0-2.25-1.01-2.25-2.25s1.01-2.25 2.25-2.25 2.25 1.01 2.25 2.25-1.01 2.25-2.25 2.25zm0-3c-0.41 0-0.75 0.34-0.75 0.75s0.34 0.75 0.75 0.75 0.75-0.34 0.75-0.75-0.34-0.75-0.75-0.75z"/>
</svg>

<svg width="24" height="24" viewBox="0 0 24 24"  xmlns="http://www.w3.org/2000/svg">
<path d="M15 22.75H9C5.58 22.75 4.25 21.42 4.25 18V6C4.25 2.58 5.58 1.25 9 1.25H15C18.42 1.25 19.75 2.58 19.75 6V18C19.75 21.42 18.42 22.75 15 22.75ZM9 2.75C6.42 2.75 5.75 3.42 5.75 6V18C5.75 20.58 6.42 21.25 9 21.25H15C17.58 21.25 18.25 20.58 18.25 18V6C18.25 3.42 17.58 2.75 15 2.75H9Z" />
<path d="M12 18.75C9.93 18.75 8.25 17.07 8.25 15C8.25 12.93 9.93 11.25 12 11.25C14.07 11.25 15.75 12.93 15.75 15C15.75 17.07 14.07 18.75 12 18.75ZM12 12.75C10.76 12.75 9.75 13.76 9.75 15C9.75 16.24 10.76 17.25 12 17.25C13.24 17.25 14.25 16.24 14.25 15C14.25 13.76 13.24 12.75 12 12.75Z" />
<path d="M12 9.75C10.76 9.75 9.75 8.74 9.75 7.5C9.75 6.26 10.76 5.25 12 5.25C13.24 5.25 14.25 6.26 14.25 7.5C14.25 8.74 13.24 9.75 12 9.75ZM12 6.75C11.59 6.75 11.25 7.09 11.25 7.5C11.25 7.91 11.59 8.25 12 8.25C12.41 8.25 12.75 7.91 12.75 7.5C12.75 7.09 12.41 6.75 12 6.75Z" />
</svg>
